build/documents/DocSignVerifySolid.svg

<svg xmlns="http://www.w3.org/2000/svg" fill="none" viewBox="0 0 24 24" focusable="false"><path d="M0 0H24V24H0z"/><path fill="#74767B" fill-rule="evenodd" d="M19.9967 6C19.9967 4.34315 18.6535 3 16.9967 3L7.00342 3C5.34656 3 4.00342 4.34315 4.00342 6L4.00342 18C4.00342 19.6569 5.34656 21 7.00342 21L16.9967 21C18.6535 21 19.9967 19.6569 19.9967 18L19.9967 6ZM13.8767 14.5836C13.3137 14.9523 12.6406 15.1667 11.9175 15.1667C9.94003 15.1667 8.33701 13.5637 8.33701 11.5863C8.33701 9.60882 9.94003 8.0058 11.9175 8.0058C13.8949 8.0058 15.4979 9.60882 15.4979 11.5863C15.4979 12.3708 15.2456 13.0963 14.8177 13.6863L16.1166 14.9889C16.3701 15.2431 16.3695 15.6547 16.1153 15.9082C15.8611 16.1616 15.4495 16.161 15.1961 15.9068L13.8767 14.5836ZM14.1979 11.5863C14.1979 12.8457 13.1769 13.8667 11.9175 13.8667C10.658 13.8667 9.63701 12.8457 9.63701 11.5863C9.63701 10.3268 10.658 9.3058 11.9175 9.3058C13.1769 9.3058 14.1979 10.3268 14.1979 11.5863Z"/></svg>

<svg xmlns="http://www.w3.org/2000/svg" fill="none" viewBox="0 0 24 24" focusable="false"><path fill="#74767B" fill-rule="evenodd" d="M19.99 6c0-1.66-1.34-3-3-3H7C5.34 3 4 4.34 4 6v12c0 1.65 1.34 3 3 3h9.99c1.66 0 3-1.35 3-3zm-6.12 8.58c-.56.37-1.23.58-1.96.58-1.98 0-3.58-1.6-3.58-3.58S9.93 8 11.91 8s3.58 1.6 3.58 3.58c0 .79-.25 1.51-.68 2.1l1.3 1.3c.26.26.25.67 0 .92a.64.64 0 0 1-.92 0zm.32-3a2.279 2.279 0 1 1-4.56 0 2.279 2.279 0 1 1 4.56 0"/></svg>
